assets/icons/tools-slack.svg

<svg width="18px" height="18px" viewBox="0 0 18 18" version="1.1" xmlns="http://www.w3.org/2000/svg" xmlns:xlink="http://www.w3.org/1999/xlink">
    <!-- Generator: Sketch 47.1 (45422) - http://www.bohemiancoding.com/sketch -->
    <desc>Slack icon - Created with Sketch.</desc>
    <defs></defs>
    <g id="-" stroke="none" stroke-width="1" fill="none" fill-rule="evenodd">
        <g id="intranet.st.5" transform="translate(-142.000000, -437.000000)" fill-rule="nonzero" fill="#FFFFFF">
            <g id="Aside-Left" transform="translate(0.000000, 80.000000)">
                <g id="Group-9" transform="translate(100.000000, 75.000000)">
                    <g id="Group-13" transform="translate(0.000000, 51.000000)">
                        <g id="Group-10">
                            <g id="Group-27" transform="translate(35.000000, 231.000000)">
                                <g id="Group-2" transform="translate(7.000000, 0.000000)">
                                    <polygon id="Rectangle-path" points="7.47266697 8.20182546 9.85011173 7.40549932 10.6192904 9.70189482 8.24184564 10.498221"></polygon>
                                    <path d="M17.2455047,6.52490959 C15.3891869,0.33718357 12.7126356,-1.10182248 6.52490959,0.754495325 C0.33718357,2.61081313 -1.10182248,5.28736439 0.754495325,11.4750904 C2.61081313,17.6628164 5.28736439,19.1018225 11.4750904,17.2455047 C17.6628164,15.3891869 19.1018225,12.7126356 17.2455047,6.52490959 Z M14.1228615,10.5397365 L12.9572666,10.9282681 L13.3601883,12.1370332 C13.518479,12.6262952 13.2594579,13.1587275 12.7701959,13.3170182 C12.6694654,13.3457983 12.5543449,13.3745784 12.4536145,13.3601883 C12.079473,13.3457983 11.7197214,13.1011672 11.5902109,12.7270257 L11.1872892,11.5182606 L8.78414909,12.324104 L9.18707079,13.5328691 C9.34536145,14.0221311 9.08634036,14.5545634 8.59707831,14.712854 C8.49634788,14.7416341 8.3812274,14.7704143 8.28049697,14.7560242 C7.9063554,14.7416341 7.54660389,14.4970031 7.41709334,14.1228615 L7.01417165,12.9140965 L5.84857675,13.3026281 C5.74784632,13.3314082 5.63272584,13.3601883 5.53199542,13.3457983 C5.15785384,13.3314082 4.79810233,13.0867772 4.66859178,12.7126356 C4.51030112,12.2233736 4.76932221,11.6909413 5.25858427,11.5326507 L6.42417917,11.144119 L5.6471159,8.82731927 L4.481521,9.21585091 C4.38079057,9.24463103 4.26567009,9.27341115 4.16493967,9.25902109 C3.79079809,9.24463103 3.43104658,9 3.30153604,8.62585843 C3.14324537,8.13659637 3.40226646,7.60416413 3.89152852,7.44587346 L5.05712342,7.05734183 L4.65420172,5.84857675 C4.49591106,5.35931469 4.75493215,4.82688245 5.24419421,4.66859178 C5.73345626,4.51030112 6.2658885,4.76932221 6.42417917,5.25858427 L6.82710086,6.46734935 L9.23024097,5.66150596 L8.82731927,4.45274088 C8.66902861,3.96347882 8.9280497,3.43104658 9.41731175,3.27275591 C9.90657381,3.11446525 10.4390061,3.37348634 10.5972967,3.8627484 L11.0002184,5.07151348 L12.1658133,4.68298185 C12.6550754,4.52469118 13.1875076,4.78371227 13.3457983,5.27297433 C13.5040889,5.76223638 13.2450679,6.29466862 12.7558058,6.45295929 L11.5902109,6.84149092 L12.3672742,9.15829067 L13.5328691,8.76975903 C14.0221311,8.61146837 14.5545634,8.87048946 14.712854,9.35975151 C14.8711447,9.84901357 14.6121236,10.3814458 14.1228615,10.5397365 Z" id="Shape"></path>
                                </g>
                            </g>
                        </g>
                    </g>
                </g>
            </g>
        </g>
    </g>
</svg>

<svg id="Layer_1" data-name="Layer 1" xmlns="http://www.w3.org/2000/svg" viewBox="0 0 18 18"><title>tools-slack</title><g id="_-" data-name="-"><g id="intranet.st.5"><g id="Aside-Left"><g id="Group-9"><g id="Group-13"><g id="Group-10"><g id="Group-27"><g id="Group-2"><polygon id="Rectangle-path" points="7.47 8.2 9.85 7.41 10.62 9.7 8.24 10.5 7.47 8.2"/><path id="Shape" d="M17.25,6.52C15.39,0.34,12.71-1.1,6.52.75S-1.1,5.29.75,11.48s4.53,7.63,10.72,5.77S19.1,12.71,17.25,6.52Zm-3.12,4L13,10.93l0.4,1.21a0.93,0.93,0,0,1-.59,1.18,0.8,0.8,0,0,1-.32,0,1,1,0,0,1-.86-0.63l-0.4-1.21-2.4.81,0.4,1.21a0.93,0.93,0,0,1-.59,1.18,0.8,0.8,0,0,1-.32,0,1,1,0,0,1-.86-0.63L7,12.91l-1.17.39a0.8,0.8,0,0,1-.32,0,1,1,0,0,1-.86-0.63,0.93,0.93,0,0,1,.59-1.18l1.17-.39L5.65,8.83l-1.17.39a0.8,0.8,0,0,1-.32,0A1,1,0,0,1,3.3,8.63a0.93,0.93,0,0,1,.59-1.18l1.17-.39L4.65,5.85a0.93,0.93,0,0,1,1.77-.59l0.4,1.21,2.4-.81L8.83,4.45a0.93,0.93,0,0,1,1.77-.59L11,5.07l1.17-.39a0.93,0.93,0,1,1,.59,1.77l-1.17.39,0.78,2.32,1.17-.39A0.93,0.93,0,1,1,14.12,10.54Z" transform="translate(0 0)"/></g></g></g></g></g></g></g></g></svg>
